X: 6429
T: Castle, The
R: jig
M: 6/8
K: Adorian
B|:cBA BAG|AGE dBG|~A3 edB|deg edB|
cBA BAG|AGE dBG|~A3 ~e3|dBG ~A2 B:|
|:cBA ~a3|bag edB|GBd ~g3|GBd cBG|
cBc dcd|ede gab|age dBG|1 EFG ~A2 B:|2 EFG ~A2||

